X:25
T:Miss Gunning's Reel
S:Petrie's Second Collection of Strathspey Reels and Country Dances &c.
Z:Steve Wyrick , 6/5/04
N:Petrie's Second Collection, page 9
% Gore's Index gives earliest publication as Alexander MacGlashan's "A Coll. Of R. ..." 1786
L:1/8
M:C|
R:Reel
K:A
e|{d}c2 (BA) GBED|CEAc             BEEe            |{d}c2 (BA) GBEd  |ceBd         cAA:|
g|aAaA     a(cBA)|GB (TB3/2A//B//) GB (TB3/2A//B//)|aAaA       a(cBA)|(c/d/e) (Bd) cAAg|
  aAaA     a(cBA)|GB (TB3/2A//B//) GB (TB3/2A//B//)|ecBA       a(cBA)|(c/d/e) (Bd) cAA|]
